icons/test.svg

<svg id="_x33_0" enable-background="new 0 0 64 64" height="512" viewBox="0 0 64 64" width="512" xmlns="http://www.w3.org/2000/svg"><g><g><g><path d="m54 48v2c0 1.1-.9 2-2 2h-2-8-4-8-4-8-4-8-2c-1.1 0-2-.9-2-2v-2z" fill="#dfb28b"/></g><g><path d="m52 20h-48c-1.1 0-2 .9-2 2v26h52v-26c0-1.1-.9-2-2-2z" fill="#ecc19c"/></g><g><path d="m55.129 5.482h4.243v3.536h-4.243z" fill="#ffc729" transform="matrix(.707 -.707 .707 .707 11.642 42.605)"/></g><g><path d="m46 23-1.18 1.18-1.82 1.82-.28-.28-1.22-1.22-1.5-1.5 3-3z" fill="#fcd770"/></g><g><path d="m55 14-3 3-3 3-3 3-3-3-2-2 12-12 1.5 1.5 2.5 2.5 1 1z" fill="#fcd770"/></g><g><path d="m50 52v6c0 1.1-.45 2.1-1.17 2.83-.73.72-1.73 1.17-2.83 1.17-2.21 0-4-1.79-4-4v-6z" fill="#ccd1d9"/></g><g><path d="m38 52v6c0 1.1-.45 2.1-1.17 2.83-.73.72-1.73 1.17-2.83 1.17-2.21 0-4-1.79-4-4v-6z" fill="#ccd1d9"/></g><g><path d="m26 52v6c0 1.1-.45 2.1-1.17 2.83-.73.72-1.73 1.17-2.83 1.17-2.21 0-4-1.79-4-4v-6z" fill="#ccd1d9"/></g><g><path d="m14 52v6c0 1.1-.45 2.1-1.17 2.83-.73.72-1.73 1.17-2.83 1.17-2.21 0-4-1.79-4-4v-6z" fill="#ccd1d9"/></g><g><path d="m35.34 36.23c1.55.56 2.66 2.03 2.66 3.77 0 2.21-1.79 4-4 4s-4-1.79-4-4c0-1.74 1.11-3.21 2.66-3.77-.36.7-.66 1.38-.66 1.77 0 1.1.9 2 2 2s2-.9 2-2c0-.39-.3-1.07-.66-1.77z" fill="#e6e9ed"/></g><g><path d="m46 24c2.21 0 4 1.79 4 4s-1.79 4-4 4-4-1.79-4-4c0-.85.26-1.64.72-2.28l.28.28 1.82-1.82c.38-.12.77-.18 1.18-.18z" fill="#e6e9ed"/></g><g><circle cx="46" cy="40" fill="#e6e9ed" r="4"/></g><g><path d="m32.66 36.23c.59-1.1 1.34-2.23 1.34-2.23s.75 1.13 1.34 2.23c.36.7.66 1.38.66 1.77 0 1.1-.9 2-2 2s-2-.9-2-2c0-.39.3-1.07.66-1.77z" fill="#69d6f4"/></g><g><circle cx="22" cy="28" fill="#e6e9ed" r="4"/></g><g><circle cx="22" cy="40" fill="#e6e9ed" r="4"/></g><g><circle cx="10" cy="28" fill="#e6e9ed" r="4"/></g><g><circle cx="10" cy="40" fill="#e6e9ed" r="4"/></g></g><g><path d="m61.293 9.707 1.414-1.414-7-7-1.414 1.414 1.793 1.793-1.586 1.586-1.5-1.5-13.414 13.414 1 1h-36.586c-1.654 0-3 1.346-3 3v28c0 1.654 1.346 3 3 3h1v5c0 2.757 2.243 5 5 5s5-2.243 5-5v-5h2v5c0 2.757 2.243 5 5 5s5-2.243 5-5v-5h2v5c0 2.757 2.243 5 5 5s5-2.243 5-5v-5h2v5c0 2.757 2.243 5 5 5s5-2.243 5-5v-5h1c1.654 0 3-1.346 3-3v-28c0-1.654-1.346-3-3-3h-.586l8-8-1-1 1.586-1.586zm-15.293 15.293c1.654 0 3 1.346 3 3s-1.346 3-3 3-3-1.346-3-3c0-.228.034-.451.084-.669l2.247-2.247c.219-.051.442-.084.669-.084zm-3-.414-1.586-1.586 1.586-1.586 1.586 1.586zm-30 33.414c0 1.654-1.346 3-3 3s-3-1.346-3-3v-5h6zm12 0c0 1.654-1.346 3-3 3s-3-1.346-3-3v-5h6zm12 0c0 1.654-1.346 3-3 3s-3-1.346-3-3v-5h6zm12 0c0 1.654-1.346 3-3 3s-3-1.346-3-3v-5h6zm3-7h-48c-.551 0-1-.448-1-1v-1h50v1c0 .552-.449 1-1 1zm0-30c.551 0 1 .448 1 1v25h-50v-25c0-.552.449-1 1-1h36.586l-2 2 1.5 1.5-5.793 5.793 1.414 1.414 5.731-5.731c-.282.634-.438 1.318-.438 2.024 0 2.757 2.243 5 5 5s5-2.243 5-5c0-2.326-1.605-4.27-3.76-4.826l2.174-2.174zm3-8.414-1.293-1.293-1.414 1.414 1.293 1.293-1.586 1.586-2.293-2.293-1.414 1.414 2.293 2.293-1.586 1.586-1.293-1.293-1.414 1.414 1.293 1.293-1.586 1.586-3.586-3.586 10.586-10.586 3.586 3.586zm2-4-1.086-1.086 1.586-1.586 1.086 1.086z"/><path d="m10 35c-2.757 0-5 2.243-5 5s2.243 5 5 5 5-2.243 5-5-2.243-5-5-5zm0 8c-1.654 0-3-1.346-3-3s1.346-3 3-3 3 1.346 3 3-1.346 3-3 3z"/><path d="m22 35c-2.757 0-5 2.243-5 5s2.243 5 5 5 5-2.243 5-5-2.243-5-5-5zm0 8c-1.654 0-3-1.346-3-3s1.346-3 3-3 3 1.346 3 3-1.346 3-3 3z"/><path d="m36.054 35.456c-.436-.799-.92-1.559-1.222-2.011l-.832-1.248-.832 1.248c-.302.452-.787 1.212-1.223 2.012-1.773.803-2.945 2.57-2.945 4.543 0 2.757 2.243 5 5 5s5-2.243 5-5c0-1.973-1.172-3.74-2.946-4.544zm-2.054.435c.562.965.975 1.82 1 2.116-.003.548-.451.993-1 .993-.551 0-1-.448-1-.99.022-.292.436-1.151 1-2.119zm0 7.109c-1.654 0-3-1.346-3-3 0-.352.067-.69.181-1.009.412 1.166 1.514 2.009 2.819 2.009s2.407-.843 2.819-2.009c.114.319.181.657.181 1.009 0 1.654-1.346 3-3 3z"/><path d="m46 35c-2.757 0-5 2.243-5 5s2.243 5 5 5 5-2.243 5-5-2.243-5-5-5zm0 8c-1.654 0-3-1.346-3-3s1.346-3 3-3 3 1.346 3 3-1.346 3-3 3z"/><path d="m10 23c-2.757 0-5 2.243-5 5s2.243 5 5 5 5-2.243 5-5-2.243-5-5-5zm0 8c-1.654 0-3-1.346-3-3s1.346-3 3-3 3 1.346 3 3-1.346 3-3 3z"/><path d="m22 23c-2.757 0-5 2.243-5 5s2.243 5 5 5 5-2.243 5-5-2.243-5-5-5zm0 8c-1.654 0-3-1.346-3-3s1.346-3 3-3 3 1.346 3 3-1.346 3-3 3z"/><path d="m30.693 31.75 1.323-1.5c-.646-.569-1.016-1.39-1.016-2.25 0-1.654 1.346-3 3-3 .86 0 1.681.37 2.25 1.016l1.5-1.322c-.949-1.077-2.316-1.694-3.75-1.694-2.757 0-5 2.243-5 5 0 1.435.617 2.801 1.693 3.75z"/></g></g></svg>

<?xml version="1.0" encoding="UTF-8" standalone="no"?>
<svg
   xmlns:dc="http://purl.org/dc/elements/1.1/"
   xmlns:cc="http://creativecommons.org/ns#"
   xmlns:rdf="http://www.w3.org/1999/02/22-rdf-syntax-ns#"
   xmlns:svg="http://www.w3.org/2000/svg"
   xmlns="http://www.w3.org/2000/svg"
   xmlns:sodipodi="http://sodipodi.sourceforge.net/DTD/sodipodi-0.dtd"
   xmlns:inkscape="http://www.inkscape.org/namespaces/inkscape"
   inkscape:version="1.0 (4035a4fb49, 2020-05-01)"
   sodipodi:docname="test.svg"
   version="1.1"
   width="24"
   viewBox="0 0 3 3"
   height="24"
   enable-background="new 0 0 64 64"
   id="_x33_0">
  <metadata
     id="metadata97">
    <rdf:RDF>
      <cc:Work
         rdf:about="">
        <dc:format>image/svg+xml</dc:format>
        <dc:type
           rdf:resource="http://purl.org/dc/dcmitype/StillImage" />
        <dc:title></dc:title>
      </cc:Work>
    </rdf:RDF>
  </metadata>
  <defs
     id="defs95" />
  <sodipodi:namedview
     inkscape:current-layer="_x33_0"
     inkscape:window-maximized="1"
     inkscape:window-y="0"
     inkscape:window-x="0"
     inkscape:cy="24.034195"
     inkscape:cx="13.844124"
     inkscape:zoom="22.273864"
     showgrid="false"
     id="namedview93"
     inkscape:window-height="1417"
     inkscape:window-width="2560"
     inkscape:pageshadow="2"
     inkscape:pageopacity="0"
     guidetolerance="10"
     gridtolerance="10"
     objecttolerance="10"
     borderopacity="1"
     bordercolor="#666666"
     pagecolor="#ffffff" />
  <g
     transform="matrix(0.04861685,0,0,0.04861685,-0.04861685,-0.06286159)"
     id="g90">
    <g
       id="g70">
      <g
         id="g4">
        <path
           id="path2"
           fill="#dfb28b"
           d="m 54,48 v 2 c 0,1.1 -0.9,2 -2,2 H 50 42 38 30 26 18 14 6 4 C 2.9,52 2,51.1 2,50 v -2 z" />
      </g>
      <g
         id="g8">
        <path
           id="path6"
           fill="#ecc19c"
           d="M 52,20 H 4 C 2.9,20 2,20.9 2,22 V 48 H 54 V 22 c 0,-1.1 -0.9,-2 -2,-2 z" />
      </g>
      <g
         id="g12">
        <path
           id="path10"
           transform="matrix(0.707,-0.707,0.707,0.707,11.642,42.605)"
           fill="#ffc729"
           d="m 55.129,5.482 h 4.243 v 3.536 h -4.243 z" />
      </g>
      <g
         id="g16">
        <path
           id="path14"
           fill="#fcd770"
           d="M 46,23 44.82,24.18 43,26 42.72,25.72 41.5,24.5 40,23 43,20 Z" />
      </g>
      <g
         id="g20">
        <path
           id="path18"
           fill="#fcd770"
           d="m 55,14 -3,3 -3,3 -3,3 -3,-3 -2,-2 12,-12 1.5,1.5 2.5,2.5 1,1 z" />
      </g>
      <g
         id="g24">
        <path
           id="path22"
           fill="#ccd1d9"
           d="m 50,52 v 6 c 0,1.1 -0.45,2.1 -1.17,2.83 C 48.1,61.55 47.1,62 46,62 43.79,62 42,60.21 42,58 v -6 z" />
      </g>
      <g
         id="g28">
        <path
           id="path26"
           fill="#ccd1d9"
           d="m 38,52 v 6 c 0,1.1 -0.45,2.1 -1.17,2.83 C 36.1,61.55 35.1,62 34,62 31.79,62 30,60.21 30,58 v -6 z" />
      </g>
      <g
         id="g32">
        <path
           id="path30"
           fill="#ccd1d9"
           d="m 26,52 v 6 c 0,1.1 -0.45,2.1 -1.17,2.83 C 24.1,61.55 23.1,62 22,62 19.79,62 18,60.21 18,58 v -6 z" />
      </g>
      <g
         id="g36">
        <path
           id="path34"
           fill="#ccd1d9"
           d="m 14,52 v 6 c 0,1.1 -0.45,2.1 -1.17,2.83 C 12.1,61.55 11.1,62 10,62 7.79,62 6,60.21 6,58 v -6 z" />
      </g>
      <g
         id="g40">
        <path
           id="path38"
           fill="#e6e9ed"
           d="M 35.34,36.23 C 36.89,36.79 38,38.26 38,40 c 0,2.21 -1.79,4 -4,4 -2.21,0 -4,-1.79 -4,-4 0,-1.74 1.11,-3.21 2.66,-3.77 C 32.3,36.93 32,37.61 32,38 c 0,1.1 0.9,2 2,2 1.1,0 2,-0.9 2,-2 0,-0.39 -0.3,-1.07 -0.66,-1.77 z" />
      </g>
      <g
         id="g44">
        <path
           id="path42"
           fill="#e6e9ed"
           d="m 46,24 c 2.21,0 4,1.79 4,4 0,2.21 -1.79,4 -4,4 -2.21,0 -4,-1.79 -4,-4 0,-0.85 0.26,-1.64 0.72,-2.28 L 43,26 44.82,24.18 C 45.2,24.06 45.59,24 46,24 Z" />
      </g>
      <g
         id="g48">
        <circle
           id="circle46"
           r="4"
           fill="#e6e9ed"
           cy="40"
           cx="46" />
      </g>
      <g
         id="g52">
        <path
           id="path50"
           fill="#69d6f4"
           d="M 32.66,36.23 C 33.25,35.13 34,34 34,34 c 0,0 0.75,1.13 1.34,2.23 0.36,0.7 0.66,1.38 0.66,1.77 0,1.1 -0.9,2 -2,2 -1.1,0 -2,-0.9 -2,-2 0,-0.39 0.3,-1.07 0.66,-1.77 z" />
      </g>
      <g
         id="g56">
        <circle
           id="circle54"
           r="4"
           fill="#e6e9ed"
           cy="28"
           cx="22" />
      </g>
      <g
         id="g60">
        <circle
           id="circle58"
           r="4"
           fill="#e6e9ed"
           cy="40"
           cx="22" />
      </g>
      <g
         id="g64">
        <circle
           id="circle62"
           r="4"
           fill="#e6e9ed"
           cy="28"
           cx="10" />
      </g>
      <g
         id="g68">
        <circle
           id="circle66"
           r="4"
           fill="#e6e9ed"
           cy="40"
           cx="10" />
      </g>
    </g>
    <g
       id="g88">
      <path
         id="path72"
         d="m 61.293,9.707 1.414,-1.414 -7,-7 L 54.293,2.707 56.086,4.5 54.5,6.086 53,4.586 39.586,18 l 1,1 H 4 c -1.654,0 -3,1.346 -3,3 v 28 c 0,1.654 1.346,3 3,3 h 1 v 5 c 0,2.757 2.243,5 5,5 2.757,0 5,-2.243 5,-5 v -5 h 2 v 5 c 0,2.757 2.243,5 5,5 2.757,0 5,-2.243 5,-5 v -5 h 2 v 5 c 0,2.757 2.243,5 5,5 2.757,0 5,-2.243 5,-5 v -5 h 2 v 5 c 0,2.757 2.243,5 5,5 2.757,0 5,-2.243 5,-5 v -5 h 1 c 1.654,0 3,-1.346 3,-3 V 22 c 0,-1.654 -1.346,-3 -3,-3 h -0.586 l 8,-8 -1,-1 L 60,8.414 Z M 46,25 c 1.654,0 3,1.346 3,3 0,1.654 -1.346,3 -3,3 -1.654,0 -3,-1.346 -3,-3 0,-0.228 0.034,-0.451 0.084,-0.669 l 2.247,-2.247 C 45.55,25.033 45.773,25 46,25 Z M 43,24.586 41.414,23 43,21.414 44.586,23 Z M 13,58 c 0,1.654 -1.346,3 -3,3 -1.654,0 -3,-1.346 -3,-3 v -5 h 6 z m 12,0 c 0,1.654 -1.346,3 -3,3 -1.654,0 -3,-1.346 -3,-3 v -5 h 6 z m 12,0 c 0,1.654 -1.346,3 -3,3 -1.654,0 -3,-1.346 -3,-3 v -5 h 6 z m 12,0 c 0,1.654 -1.346,3 -3,3 -1.654,0 -3,-1.346 -3,-3 v -5 h 6 z m 3,-7 H 4 C 3.449,51 3,50.552 3,50 v -1 h 50 v 1 c 0,0.552 -0.449,1 -1,1 z m 0,-30 c 0.551,0 1,0.448 1,1 V 47 H 3 V 22 c 0,-0.552 0.449,-1 1,-1 h 36.586 l -2,2 1.5,1.5 -5.793,5.793 1.414,1.414 5.731,-5.731 C 41.156,26.61 41,27.294 41,28 c 0,2.757 2.243,5 5,5 2.757,0 5,-2.243 5,-5 0,-2.326 -1.605,-4.27 -3.76,-4.826 L 49.414,21 Z M 55,12.586 53.707,11.293 52.293,12.707 53.586,14 52,15.586 49.707,13.293 48.293,14.707 50.586,17 49,18.586 47.707,17.293 46.293,18.707 47.586,20 46,21.586 42.414,18 53,7.414 56.586,11 Z m 2,-4 L 55.914,7.5 57.5,5.914 58.586,7 Z" />
      <path
         id="path74"
         d="m 10,35 c -2.757,0 -5,2.243 -5,5 0,2.757 2.243,5 5,5 2.757,0 5,-2.243 5,-5 0,-2.757 -2.243,-5 -5,-5 z m 0,8 c -1.654,0 -3,-1.346 -3,-3 0,-1.654 1.346,-3 3,-3 1.654,0 3,1.346 3,3 0,1.654 -1.346,3 -3,3 z" />
      <path
         id="path76"
         d="m 22,35 c -2.757,0 -5,2.243 -5,5 0,2.757 2.243,5 5,5 2.757,0 5,-2.243 5,-5 0,-2.757 -2.243,-5 -5,-5 z m 0,8 c -1.654,0 -3,-1.346 -3,-3 0,-1.654 1.346,-3 3,-3 1.654,0 3,1.346 3,3 0,1.654 -1.346,3 -3,3 z" />
      <path
         id="path78"
         d="m 36.054,35.456 c -0.436,-0.799 -0.92,-1.559 -1.222,-2.011 L 34,32.197 33.168,33.445 c -0.302,0.452 -0.787,1.212 -1.223,2.012 C 30.172,36.26 29,38.027 29,40 c 0,2.757 2.243,5 5,5 2.757,0 5,-2.243 5,-5 0,-1.973 -1.172,-3.74 -2.946,-4.544 z M 34,35.891 c 0.562,0.965 0.975,1.82 1,2.116 C 34.997,38.555 34.549,39 34,39 c -0.551,0 -1,-0.448 -1,-0.99 0.022,-0.292 0.436,-1.151 1,-2.119 z M 34,43 c -1.654,0 -3,-1.346 -3,-3 0,-0.352 0.067,-0.69 0.181,-1.009 C 31.593,40.157 32.695,41 34,41 35.305,41 36.407,40.157 36.819,38.991 36.933,39.31 37,39.648 37,40 c 0,1.654 -1.346,3 -3,3 z" />
      <path
         id="path80"
         d="m 46,35 c -2.757,0 -5,2.243 -5,5 0,2.757 2.243,5 5,5 2.757,0 5,-2.243 5,-5 0,-2.757 -2.243,-5 -5,-5 z m 0,8 c -1.654,0 -3,-1.346 -3,-3 0,-1.654 1.346,-3 3,-3 1.654,0 3,1.346 3,3 0,1.654 -1.346,3 -3,3 z" />
      <path
         id="path82"
         d="m 10,23 c -2.757,0 -5,2.243 -5,5 0,2.757 2.243,5 5,5 2.757,0 5,-2.243 5,-5 0,-2.757 -2.243,-5 -5,-5 z m 0,8 c -1.654,0 -3,-1.346 -3,-3 0,-1.654 1.346,-3 3,-3 1.654,0 3,1.346 3,3 0,1.654 -1.346,3 -3,3 z" />
      <path
         id="path84"
         d="m 22,23 c -2.757,0 -5,2.243 -5,5 0,2.757 2.243,5 5,5 2.757,0 5,-2.243 5,-5 0,-2.757 -2.243,-5 -5,-5 z m 0,8 c -1.654,0 -3,-1.346 -3,-3 0,-1.654 1.346,-3 3,-3 1.654,0 3,1.346 3,3 0,1.654 -1.346,3 -3,3 z" />
      <path
         id="path86"
         d="m 30.693,31.75 1.323,-1.5 C 31.37,29.681 31,28.86 31,28 c 0,-1.654 1.346,-3 3,-3 0.86,0 1.681,0.37 2.25,1.016 l 1.5,-1.322 C 36.801,23.617 35.434,23 34,23 c -2.757,0 -5,2.243 -5,5 0,1.435 0.617,2.801 1.693,3.75 z" />
    </g>
  </g>
</svg>
